X:1
%%scale .90
T:Uncle Joe (Miss McLeod's Reel)
C:/Trad
M:4/4
L:1/8
Q:1/4=120
K:D
%%titlefont Times-Bold 14
%%gchordfont Helvetica-Bold 12.0
%%partsfont Times-Roman 11.0
%%vocalfont Times-Bold 13.0
%%wordsfont Times-Roman 12.0
%%StrTabFont Times-Bold 14.0
%%stretchstaff yes
|FE|DEFA BAFD|F2 F2 F2 FE
w:1~Did you ev-er go to meet-_ ing_ Un-cle Joe? Did you
w:2~Will your horse_ car-ry dou-_ ble_ Un-cle Joe? Will your
w:3~Is your horse a sin-gle foot-_ er_ Un-cle Joe? Is your
|DEFA BAFD|E2 E2 E2 FE
w:ev-er go to meet-_ ing_ Un-cle Joe? Did you
w:horse_ car-ry dou-_ ble_ Un-cle Joe? Will your
w:horse a sin-gle foot-_ er_ Un-cle Joe? Is your
|DEFA BAFD|F2 F2 F2 AA
w:ev-er go to meet-_ ing_ Un-cle Joe? I don't
w:horse_ car-ry dou-_ ble_ Un-cle Joe? I don't
w:horse a sin-gle foot-_ er_ Un-cle Joe? I don't
|A2BdB ADF|E2 D2 D2 z2
w:mind the wea-ther if the_ wind don't blow.__
|Dd2 BA2 A2|FF2 FF2 F2
w:Hop high my la-dies all in a row_
|Dd2 BA2 A2|EE2 EE2 E2
w:Hop high my la-dies all in a row_
|Dd2 BA2 FD|F2 FE F2 A2
w:Hop high my la-dies_ all in a row, don't
|A2A BdBDE|F2 E2 D2||
w:mind_ the wea-ther if the wind don't blow.
